Newaita-dark/actions/32/format-join-node.svg

<svg height="32" viewBox="0 0 32 32" width="32" xmlns="http://www.w3.org/2000/svg"><g fill="#e0e0e0"><path d="m19.84375 2.894531v9.261719h9.261719v-7.9375c0-.734375-.589844-1.324219-1.320313-1.324219zm2.648438 2.648438h3.308593c.363281 0 .660157.292969.660157.660156v3.308594h-3.96875zm0 0"/><path d="m11.90625 2.894531v9.261719h-9.261719v-7.9375c0-.734375.589844-1.324219 1.324219-1.324219zm-2.644531 2.648438h-3.308594c-.367187 0-.660156.292969-.660156.660156v3.308594h3.96875zm0 0"/><path d="m18.523438 23.402344h10.582031v2.648437h-10.582031zm0 0"/><path d="m10.585938 6.203125h10.582031v2.648437h-10.582031zm0 0"/><path d="m19.183594 14.804688h-6.613282l3.304688 3.96875zm0 0"/><path d="m12.570312 20.09375c-.734374 0-1.324218.59375-1.324218 1.324219v6.617187c0 .730469.589844 1.320313 1.324218 1.320313h6.613282c.734375 0 1.324218-.589844 1.324218-1.320313v-6.617187c0-.730469-.589843-1.324219-1.324218-1.324219zm1.984376 2.648438h2.644531c.367187 0 .660156.292968.660156.660156v2.648437c0 .363281-.292969.660157-.660156.660157h-2.644531c-.367188 0-.664063-.296876-.664063-.660157v-2.648437c0-.367188.296875-.660156.664063-.660156zm0 0"/><path d="m2.644531 23.402344h10.585938v2.648437h-10.585938zm0 0"/></g></svg>

<svg xmlns="http://www.w3.org/2000/svg" xmlns:xlink="http://www.w3.org/1999/xlink" width="32px" height="32px" viewBox="0 0 32 32" version="1.1">
<g id="surface1">
     <defs>
  <style id="current-color-scheme" type="text/css">
   .ColorScheme-Text { color:#eeeeee; } .ColorScheme-Highlight { color:#424242; }
  </style>
 </defs>
<path style="fill:currentColor" class="ColorScheme-Text" d="M 19.84375 2.894531 L 19.84375 12.15625 L 29.105469 12.15625 L 29.105469 4.21875 C 29.105469 3.484375 28.515625 2.894531 27.785156 2.894531 Z M 22.492188 5.542969 L 25.800781 5.542969 C 26.164062 5.542969 26.460938 5.835938 26.460938 6.203125 L 26.460938 9.511719 L 22.492188 9.511719 Z M 22.492188 5.542969 "/>
     <defs>
  <style id="current-color-scheme" type="text/css">
   .ColorScheme-Text { color:#eeeeee; } .ColorScheme-Highlight { color:#424242; }
  </style>
 </defs>
<path style="fill:currentColor" class="ColorScheme-Text" d="M 11.90625 2.894531 L 11.90625 12.15625 L 2.644531 12.15625 L 2.644531 4.21875 C 2.644531 3.484375 3.234375 2.894531 3.96875 2.894531 Z M 9.261719 5.542969 L 5.953125 5.542969 C 5.585938 5.542969 5.292969 5.835938 5.292969 6.203125 L 5.292969 9.511719 L 9.261719 9.511719 Z M 9.261719 5.542969 "/>
     <defs>
  <style id="current-color-scheme" type="text/css">
   .ColorScheme-Text { color:#eeeeee; } .ColorScheme-Highlight { color:#424242; }
  </style>
 </defs>
<path style="fill:currentColor" class="ColorScheme-Text" d="M 18.523438 23.402344 L 29.105469 23.402344 L 29.105469 26.050781 L 18.523438 26.050781 Z M 18.523438 23.402344 "/>
     <defs>
  <style id="current-color-scheme" type="text/css">
   .ColorScheme-Text { color:#eeeeee; } .ColorScheme-Highlight { color:#424242; }
  </style>
 </defs>
<path style="fill:currentColor" class="ColorScheme-Text" d="M 10.585938 6.203125 L 21.167969 6.203125 L 21.167969 8.851562 L 10.585938 8.851562 Z M 10.585938 6.203125 "/>
     <defs>
  <style id="current-color-scheme" type="text/css">
   .ColorScheme-Text { color:#eeeeee; } .ColorScheme-Highlight { color:#424242; }
  </style>
 </defs>
<path style="fill:currentColor" class="ColorScheme-Text" d="M 19.183594 14.804688 L 12.570312 14.804688 L 15.875 18.773438 Z M 19.183594 14.804688 "/>
     <defs>
  <style id="current-color-scheme" type="text/css">
   .ColorScheme-Text { color:#eeeeee; } .ColorScheme-Highlight { color:#424242; }
  </style>
 </defs>
<path style="fill:currentColor" class="ColorScheme-Text" d="M 12.570312 20.09375 C 11.835938 20.09375 11.246094 20.6875 11.246094 21.417969 L 11.246094 28.035156 C 11.246094 28.765625 11.835938 29.355469 12.570312 29.355469 L 19.183594 29.355469 C 19.917969 29.355469 20.507812 28.765625 20.507812 28.035156 L 20.507812 21.417969 C 20.507812 20.6875 19.917969 20.09375 19.183594 20.09375 Z M 14.554688 22.742188 L 17.199219 22.742188 C 17.566406 22.742188 17.859375 23.035156 17.859375 23.402344 L 17.859375 26.050781 C 17.859375 26.414062 17.566406 26.710938 17.199219 26.710938 L 14.554688 26.710938 C 14.1875 26.710938 13.890625 26.414062 13.890625 26.050781 L 13.890625 23.402344 C 13.890625 23.035156 14.1875 22.742188 14.554688 22.742188 Z M 14.554688 22.742188 "/>
     <defs>
  <style id="current-color-scheme" type="text/css">
   .ColorScheme-Text { color:#eeeeee; } .ColorScheme-Highlight { color:#424242; }
  </style>
 </defs>
<path style="fill:currentColor" class="ColorScheme-Text" d="M 2.644531 23.402344 L 13.230469 23.402344 L 13.230469 26.050781 L 2.644531 26.050781 Z M 2.644531 23.402344 "/>
</g>
</svg>
